picto/press-out-glass.svg

<svg class="color-immutable" width="24" height="24" viewBox="0 0 24 24" fill="none" xmlns="http://www.w3.org/2000/svg"><path d="M0 22.5V1.5C0 0.675 0.675 0 1.5 0H22.5C23.325 0 24 0.675 24 1.5V22.5C24 23.325 23.325 24 22.5 24H1.5C0.675 24 0 23.325 0 22.5Z" fill="#237F52"/><path d="M10.731 14.76L10.098 13.034L11.035 11.826L11.207 10.498L11.562 10.544L11.378 11.969L10.503 13.097L11.068 14.637L10.731 14.76Z" fill="white"/><path d="M7.84105 9.679H5.58105V9.321H7.75505L9.06605 8.657L10.5071 9.04L10.4151 9.386L9.10605 9.039L7.84105 9.679Z" fill="white"/><path d="M14.093 10.542L13.297 9.679H12.572V9.321H13.454L14.357 10.299L14.093 10.542Z" fill="white"/><path d="M7.50705 10.687L7.37305 10.355L8.93805 9.724L9.68405 10.023L10.441 9.673L10.591 9.998L9.69405 10.413L8.93805 10.11L7.50705 10.687Z" fill="white"/><path d="M16.412 11.081C16.331 11.004 16.225 10.962 16.115 10.962C16.112 10.962 16.109 10.962 16.106 10.962C15.992 10.965 15.884 11.013 15.805 11.096L15.674 11.233L16.976 12.475L16.834 12.624L15.239 11.103C15.159 11.026 15.052 10.984 14.942 10.984C14.939 10.984 14.936 10.984 14.933 10.984C14.819 10.987 14.712 11.035 14.633 11.117L14.502 11.255L16.407 13.072L16.265 13.221L14.067 11.126C13.987 11.049 13.881 11.007 13.77 11.007C13.767 11.007 13.764 11.007 13.76 11.007C13.647 11.01 13.538 11.057 13.461 11.14L13.329 11.278L15.837 13.669L15.695 13.818L12.847 11.102C12.764 11.023 12.654 10.98 12.541 10.98C12.537 10.98 12.533 10.98 12.529 10.98C12.283 10.986 12.089 11.19 12.095 11.435C12.098 11.552 12.147 11.665 12.233 11.746L14.938 14.326C15.03 14.413 15.083 14.532 15.086 14.659L15.104 15.414C15.109 15.598 14.963 15.751 14.779 15.755L13.426 15.788C13.123 15.795 12.858 15.992 12.764 16.28C12.752 16.318 12.746 16.358 12.747 16.4C12.751 16.594 12.91 16.748 13.103 16.748C13.106 16.748 13.109 16.748 13.112 16.748L17.058 16.65L17.805 16.632L21 18.53V15.112L19.266 14.09L16.412 11.081Z" fill="white"/><path d="M3.60803 19.447H4.39003L5.73103 17.823L6.45103 17.623L10.254 16.566C10.444 16.513 10.555 16.316 10.502 16.126C10.491 16.086 10.473 16.05 10.451 16.017C10.315 15.823 10.096 15.713 9.86703 15.713C9.80303 15.713 9.73803 15.722 9.67403 15.739L8.37003 16.103C8.34003 16.112 8.31003 16.115 8.28003 16.115C8.13403 16.115 8.00003 16.018 7.95903 15.871L7.75603 15.144C7.72203 15.022 7.73803 14.892 7.80103 14.783L9.63603 11.527C9.69403 11.424 9.70903 11.302 9.67703 11.189C9.62203 10.992 9.44403 10.863 9.24903 10.863C9.20903 10.863 9.16903 10.868 9.12903 10.88C9.01603 10.911 8.91903 10.987 8.86003 11.089L6.92803 14.517L6.74803 14.416L8.45003 11.397L8.28303 11.304C8.21903 11.267 8.14603 11.248 8.07303 11.248C8.03403 11.248 7.99603 11.253 7.95803 11.264C7.84803 11.295 7.75603 11.367 7.70003 11.467L6.20903 14.112L6.03003 14.011L7.32303 11.718L7.15703 11.625C7.09203 11.588 7.02003 11.569 6.94603 11.569C6.90803 11.569 6.86903 11.574 6.83103 11.585C6.72203 11.616 6.62803 11.689 6.57303 11.788L5.49103 13.708L5.31103 13.607L6.19503 12.04L6.03003 11.947C5.96503 11.91 5.89203 11.891 5.81803 11.891C5.78003 11.891 5.74103 11.896 5.70303 11.907C5.59403 11.938 5.50103 12.011 5.44503 12.11L3.35803 15.845V19.199C3.35803 19.335 3.47003 19.447 3.60803 19.447Z" fill="white"/><path d="M3.358 15.403V8.397H18.337C18.586 8.397 18.835 8.604 18.88 8.849L19.866 14.195L20.274 14.436L19.231 8.784C19.155 8.374 18.754 8.04 18.337 8.04H3.358V6.608C3.358 6.472 3.473 6.357 3.609 6.357H20.393C20.531 6.357 20.644 6.469 20.644 6.608V14.653L21 14.863V6.608C21 6.274 20.726 6 20.392 6H3.608C3.274 6 3 6.274 3 6.608V16.043L3.121 15.826L3.358 15.403Z" fill="white"/><path d="M20.642 18.567V19.196C20.642 19.334 20.53 19.447 20.391 19.447H4.66805L4.37305 19.805H20.392C20.727 19.805 21 19.531 21 19.197V18.78L20.891 18.715L20.642 18.567Z" fill="white"/><path d="M10.502 16.126C10.491 16.086 10.473 16.05 10.451 16.017C10.315 15.823 10.096 15.713 9.867 15.713C9.803 15.713 9.738 15.722 9.674 15.739L8.37 16.103C8.34 16.112 8.31 16.115 8.28 16.115C8.134 16.115 8 16.018 7.959 15.871L7.756 15.144C7.722 15.022 7.738 14.892 7.801 14.783L9.636 11.527C9.694 11.424 9.709 11.302 9.677 11.189C9.622 10.992 9.444 10.863 9.249 10.863C9.209 10.863 9.169 10.868 9.129 10.88C9.016 10.911 8.919 10.987 8.86 11.089L6.928 14.517L6.748 14.416L8.45 11.397L8.283 11.304C8.219 11.267 8.146 11.248 8.073 11.248C8.034 11.248 7.996 11.253 7.958 11.264C7.848 11.295 7.756 11.367 7.7 11.467L6.209 14.112L6.03 14.011L7.323 11.718L7.157 11.625C7.092 11.588 7.02 11.569 6.946 11.569C6.908 11.569 6.869 11.574 6.831 11.585C6.722 11.616 6.628 11.689 6.573 11.788L5.491 13.708L5.311 13.607L6.195 12.04L6.03 11.947C5.965 11.91 5.892 11.891 5.818 11.891C5.78 11.891 5.741 11.896 5.703 11.907C5.594 11.938 5.501 12.011 5.445 12.11L3.358 15.845L3.309 15.933L3 16.483V17.255V18.399V19.196C3 19.531 3.274 19.804 3.608 19.804H3.749H3.865H4.095L4.39 19.446L5.731 17.822L6.451 17.622L10.254 16.565C10.444 16.513 10.555 16.316 10.502 16.126Z" fill="white"/><path d="M12.133 9.5C12.133 9.16 11.857 8.883 11.517 8.883C11.176 8.883 10.9 9.159 10.9 9.5C10.9 9.841 11.176 10.117 11.517 10.117C11.857 10.116 12.133 9.84 12.133 9.5Z" fill="#EB0000"/></svg>

<svg class="color-immutable" width="24" height="24" viewBox="0 0 24 24" fill="none" xmlns="http://www.w3.org/2000/svg"><g clip-path="url(#a)"><path d="M0 22.5v-21C0 .675.675 0 1.5 0h21c.825 0 1.5.675 1.5 1.5v21c0 .825-.675 1.5-1.5 1.5h-21C.675 24 0 23.325 0 22.5Z" fill="#237F52"/><path d="m10.731 14.76-.633-1.726.937-1.208.172-1.328.355.046-.184 1.425-.875 1.128.565 1.54-.337.123ZM7.841 9.679h-2.26v-.358h2.174l1.311-.664 1.441.383-.092.346-1.309-.347-1.265.64ZM14.093 10.542l-.796-.863h-.725v-.358h.882l.903.978-.264.243ZM7.507 10.687l-.134-.332 1.565-.631.746.299.757-.35.15.325-.897.415-.756-.303-1.431.577ZM16.412 11.081a.43.43 0 0 0-.297-.119h-.009a.43.43 0 0 0-.301.134l-.131.137 1.302 1.242-.142.149-1.595-1.521a.428.428 0 0 0-.297-.119h-.009a.432.432 0 0 0-.3.133l-.131.138 1.905 1.817-.142.149-2.198-2.095a.427.427 0 0 0-.297-.119h-.01a.423.423 0 0 0-.299.133l-.132.138 2.508 2.391-.142.149-2.848-2.716a.444.444 0 0 0-.306-.122h-.012a.445.445 0 0 0-.296.766l2.705 2.58a.472.472 0 0 1 .148.333l.018.755a.332.332 0 0 1-.325.341l-1.353.033a.713.713 0 0 0-.662.492.356.356 0 0 0 .339.468h.009l3.946-.098.747-.018L21 18.53v-3.418l-1.734-1.022-2.854-3.009ZM3.608 19.447h.782l1.341-1.624.72-.2 3.803-1.057a.357.357 0 0 0 .197-.549.712.712 0 0 0-.777-.278l-1.304.364a.334.334 0 0 1-.411-.232l-.203-.727a.47.47 0 0 1 .045-.361l1.835-3.256a.444.444 0 0 0-.507-.647.45.45 0 0 0-.269.209l-1.932 3.428-.18-.101 1.702-3.019-.167-.093a.42.42 0 0 0-.325-.04.426.426 0 0 0-.258.203l-1.491 2.645-.179-.101 1.293-2.293-.166-.093a.424.424 0 0 0-.584.163l-1.082 1.92-.18-.101.884-1.567-.165-.093a.428.428 0 0 0-.585.163l-2.087 3.735v3.354a.25.25 0 0 0 .25.248Z" fill="#fff"/><path d="M3.358 15.403V8.397h14.979c.249 0 .498.207.543.452l.986 5.346.408.241-1.043-5.652a.946.946 0 0 0-.894-.744H3.358V6.608c0-.136.115-.251.251-.251h16.784c.138 0 .251.112.251.251v8.045l.356.21V6.608A.61.61 0 0 0 20.392 6H3.608A.61.61 0 0 0 3 6.608v9.435l.121-.217.237-.423ZM20.642 18.567v.629a.251.251 0 0 1-.251.251H4.668l-.295.358h16.019a.61.61 0 0 0 .608-.608v-.417l-.109-.065-.249-.148Z" fill="#fff"/><path d="M10.502 16.126a.376.376 0 0 0-.051-.109.712.712 0 0 0-.777-.278l-1.304.364a.334.334 0 0 1-.411-.232l-.203-.727a.47.47 0 0 1 .045-.361l1.835-3.256a.444.444 0 0 0-.507-.647.45.45 0 0 0-.269.209l-1.932 3.428-.18-.101 1.702-3.019-.167-.093a.42.42 0 0 0-.325-.04.426.426 0 0 0-.258.203l-1.491 2.645-.179-.101 1.293-2.293-.166-.093a.424.424 0 0 0-.584.163l-1.082 1.92-.18-.101.884-1.567-.165-.093a.428.428 0 0 0-.585.163l-2.087 3.735-.049.088-.309.55v2.713a.61.61 0 0 0 .608.608h.487l.295-.358 1.341-1.624.72-.2 3.803-1.057a.356.356 0 0 0 .248-.439Z" fill="#fff"/><path d="M12.133 9.5a.617.617 0 1 0-1.234 0 .617.617 0 0 0 1.234 0Z" fill="#EB0000"/></g><defs><clipPath id="a"><path fill="#fff" d="M0 0h24v24H0z"/></clipPath></defs></svg>
